svgs/regular/tire.svg

<svg xmlns="http://www.w3.org/2000/svg" viewBox="0 0 512 512"><!-- Font Awesome Pro 6.0.0-alpha2 by @fontawesome - https://fontawesome.com License - https://fontawesome.com/license (Commercial License) --><path d="M256 84C161 84 84 161 84 256S161 428 256 428S428 351 428 256S351 84 256 84ZM256 132C274.625 132 292 136.375 307.875 143.75L281.25 180.5C273.25 177.75 264.875 176 256 176S238.75 177.75 230.75 180.5L204.125 143.75C220 136.375 237.375 132 256 132ZM133.5 270.5C132.875 265.75 132 261 132 256C132 223.5 144.875 194.125 165.375 172L191.875 208.625C182 221.875 176 238.125 176 256C176 256.25 176.125 256.5 176.125 256.75L133.5 270.5ZM232 377.625C195.875 370.5 165.75 347.375 148.25 316.25L191 302.375C201 316.25 215.25 326.625 232 331.875V377.625ZM256 288C238.375 288 224 273.625 224 256S238.375 224 256 224S288 238.375 288 256S273.625 288 256 288ZM280 377.625V331.875C296.75 326.625 311 316.25 321 302.375L363.75 316.25C346.25 347.375 316.125 370.5 280 377.625ZM335.875 256.75C335.875 256.5 336 256.25 336 256C336 238.125 330 221.875 320.125 208.625L346.625 172C367.125 194.125 380 223.5 380 256C380 261 379.125 265.75 378.5 270.5L335.875 256.75ZM256 0C114.625 0 0 114.625 0 256S114.625 512 256 512S512 397.375 512 256S397.375 0 256 0ZM256 464C141.25 464 48 370.75 48 256S141.25 48 256 48S464 141.25 464 256S370.75 464 256 464Z"/></svg>

<svg xmlns="http://www.w3.org/2000/svg" viewBox="0 0 512 512"><!-- Font Awesome Pro 5.15.1 by @fontawesome - https://fontawesome.com License - https://fontawesome.com/license (Commercial License) --><path d="M256 84c-94.99 0-172 77.01-172 172s77.01 172 172 172 172-77.01 172-172S350.99 84 256 84zm0 48c18.58 0 36.05 4.4 51.89 11.75l-26.66 36.7c-7.97-2.66-16.35-4.45-25.22-4.45s-17.25 1.79-25.22 4.45l-26.66-36.7C219.95 136.4 237.42 132 256 132zM133.47 270.56c-.58-4.84-1.47-9.58-1.47-14.56 0-32.48 12.83-61.85 33.34-83.98l26.55 36.55C182.03 221.87 176 238.17 176 256c0 .25.07.47.07.72l-42.6 13.84zM232 377.57c-36.13-7.12-66.23-30.21-83.72-61.35l42.71-13.88c9.96 13.94 24.31 24.31 41.01 29.59v45.64zM256 288c-17.67 0-32-14.33-32-32s14.33-32 32-32 32 14.33 32 32-14.33 32-32 32zm24 89.57v-45.64c16.7-5.28 31.04-15.64 41.01-29.59l42.71 13.88c-17.49 31.15-47.59 54.23-83.72 61.35zm55.93-120.85c0-.25.07-.47.07-.72 0-17.83-6.03-34.13-15.89-47.43l26.55-36.55C367.17 194.15 380 223.52 380 256c0 4.99-.9 9.73-1.47 14.56l-42.6-13.84zM256 0C114.62 0 0 114.62 0 256s114.62 256 256 256 256-114.62 256-256S397.38 0 256 0zm0 464c-114.69 0-208-93.31-208-208S141.31 48 256 48s208 93.31 208 208-93.31 208-208 208z"/></svg>
